public/images/underline.svg

<svg height="25.115" viewBox="0 0 222.079 25.115" width="222.079" xmlns="http://www.w3.org/2000/svg"><path d="m144.84961 5.75c-3.56205-.0010311-7.12155.0098057-10.67383.0273438-28.41821.1403043-56.848944 1.2406748-85.126952 3.4121093-15.834135 1.2174719-31.60918 2.7826629-47.3261718 4.6953129-2.8278858.34852-1.72758553 3.841658 1.0507813 3.564453a1323.474 1323.474 0 0 1 168.9941425-6.50586c15.92909.44719 31.83362 1.379203 47.75586 1.908203 3.20725.105997 3.2587-3.76421.14062-4.0742182-24.7494-2.4621165-49.88011-3.0201261-74.81445-3.0273438z" fill="#fff"/></svg>

<?xml version="1.0" encoding="UTF-8" standalone="no"?>
<svg xmlns="http://www.w3.org/2000/svg" viewBox="0 0 222.079 25.115" height="25.115" width="222.079">
   <path style="fill:#fff" d="M 144.84961 5.75 C 141.28756 5.7489689 137.72806 5.7598057 134.17578 5.7773438 C 105.75757 5.9176481 77.326836 7.0180186 49.048828 9.1894531 C 33.214693 10.406925 17.439648 11.972116 1.7226562 13.884766 C -1.1052296 14.233286 -0.0049293301 17.726424 2.7734375 17.449219 A 1323.474 1323.474 0 0 1 171.76758 10.943359 C 187.69667 11.390549 203.6012 12.322562 219.52344 12.851562 C 222.73069 12.957559 222.78214 9.087352 219.66406 8.7773438 C 194.91466 6.3152273 169.78395 5.7572177 144.84961 5.75 z "/>
</svg>
